X:1
T:11th October, The
M:C|
L:1/8
R:Reel
B:Alexander Mackay  A Collection of Reels, Strathspeys and Slow Tunes

B:Chiefly composed by Alexander Mackay, Musician Islay (c. 1822, p. 19)
B:  https://digital.nls.uk/special-collections-of-printed-music/archive/104487947
N:Dedicated to the Right Hon. Lady Elinor Campbell of Islay and Shawfield.
N:Mackay was born c. 1775 and was a fiddler-composer from Islay. Many of his
N:tune titles are reflect Islay settings.
N:Printed in Glasgow by J. MacFadyen, 30 Wilson St.
Z:AK/Fiddlers Companion
K:A
agae agae|(f/g/)a ec dBBg|agae agae|(f/g/a) ed cAAg|
agae agae|(f/g/a) ec dBBe|(cAeA) (fAgA)|(aAed) cAAe||
|:E3e (eAcA)|BAcA dBBd|(cAeA) (fAgA)|(aAed) cAAe:|]





